svgs/kwgt.svg

<svg width="192" height="192" viewBox="0 0 192 192" fill="none" xmlns="http://www.w3.org/2000/svg"><rect x="98" y="110" width="60" height="60" rx="8" stroke="#000" stroke-width="12"/><path fill-rule="evenodd" clip-rule="evenodd" d="M42 16c-5.523 0-10 4.477-10 10v140c0 5.523 4.477 10 10 10h16c5.523 0 10-4.477 10-10V26c0-5.523-4.477-10-10-10H42Zm2 148V28h12v136H44Zm86-148c-14.359 0-26 11.64-26 26v19.515L76.586 88.929c-3.906 3.905-3.906 10.237 0 14.142l8.4 8.399a22.026 22.026 0 0 1 6.75-10.22L86.486 96l27.757-27.757A6 6 0 0 0 116 64V42c0-7.053 5.215-12.888 12-13.858v43.373l-20.243 20.242A5.983 5.983 0 0 0 106 96h14.485l17.758-17.757A6 6 0 0 0 140 74V26c0-5.523-4.477-10-10-10Z" fill="#000"/><circle cx="118" cy="130" r="8" fill="#000"/><circle cx="118" cy="150" r="8" fill="#000"/><circle cx="138" cy="130" r="8" fill="#000"/><circle cx="138" cy="150" r="8" fill="#000"/></svg>

<?xml version="1.0" encoding="UTF-8" standalone="no"?><svg xmlns:android="http://schemas.android.com/apk/res/android" height="192" width="192" xmlns="http://www.w3.org/2000/svg">
  <path d="M106,110L150,110A8,8 0,0 1,158 118L158,162A8,8 0,0 1,150 170L106,170A8,8 0,0 1,98 162L98,118A8,8 0,0 1,106 110z" fill="#000000" fill-opacity="0.0" stroke="#000000" stroke-width="12"/>
  <path d="M42,16C36.477,16 32,20.477 32,26V166C32,171.523 36.477,176 42,176H58C63.523,176 68,171.523 68,166V26C68,20.477 63.523,16 58,16H42ZM44,164V28H56V164H44ZM130,16C115.641,16 104,27.641 104,42V61.515L76.586,88.929C72.68,92.834 72.68,99.166 76.586,103.071L84.985,111.47C86.234,107.447 88.606,103.918 91.736,101.25L86.485,96L114.243,68.243C115.368,67.117 116,65.591 116,64V42C116,34.947 121.215,29.112 128,28.142V71.515L107.757,91.757C106.586,92.929 106,94.465 106,96H120.485L138.243,78.243C139.368,77.117 140,75.591 140,74V26C140,20.477 135.523,16 130,16Z" fill="#000000" fill-rule="evenOdd"/>
  <path d="M118,130m-8,0a8,8 0,1 1,16 0a8,8 0,1 1,-16 0" fill="#000000"/>
  <path d="M118,150m-8,0a8,8 0,1 1,16 0a8,8 0,1 1,-16 0" fill="#000000"/>
  <path d="M138,130m-8,0a8,8 0,1 1,16 0a8,8 0,1 1,-16 0" fill="#000000"/>
  <path d="M138,150m-8,0a8,8 0,1 1,16 0a8,8 0,1 1,-16 0" fill="#000000"/>
</svg>
